svgs/regular/mug-marshmallows.svg

<svg xmlns="http://www.w3.org/2000/svg" viewBox="0 0 512 512"><!--! Font Awesome Pro 6.6.0 by @fontawesome - https://fontawesome.com License - https://fontawesome.com/license (Commercial License) Copyright 2024 Fonticons, Inc. --><path d="M197.7 125.7C194 122 192 117.1 192 112s2-10 5.7-13.7l60.7-60.7C262 34 266.9 32 272 32s10 2 13.7 5.7l60.7 60.7c3.6 3.6 5.7 8.5 5.7 13.7s-2 10-5.7 13.7L344 128l-144 0-2.3-2.3zM32 64c0-17.7 14.3-32 32-32l128 0c7.5 0 14.4 2.6 19.8 6.9L175 75.7c-9.6 9.6-15 22.7-15 36.3c0 5.5 .9 10.9 2.6 16L32 128l0-64zM48 384c0 26.5 21.5 48 48 48l192 0c26.5 0 48-21.5 48-48l0-176-184 0 0 56c0 13.3-10.7 24-24 24s-24-10.7-24-24l0-56-56 0 0 176zM0 192c0-17.7 14.3-32 32-32l320 0 48 0c61.9 0 112 50.1 112 112s-50.1 112-112 112l-16 0c0 53-43 96-96 96L96 480c-53 0-96-43-96-96L0 192zM384 336l16 0c35.3 0 64-28.7 64-64s-28.7-64-64-64l-16 0 0 128z"/></svg>

<svg xmlns="http://www.w3.org/2000/svg" viewBox="0 0 512 512"><!--! Font Awesome Pro 6.5.2 by @fontawesome - https://fontawesome.com License - https://fontawesome.com/license (Commercial License) Copyright 2024 Fonticons, Inc. --><path d="M197.7 125.7C194 122 192 117.1 192 112s2-10 5.7-13.7l60.7-60.7C262 34 266.9 32 272 32s10 2 13.7 5.7l60.7 60.7c3.6 3.6 5.7 8.5 5.7 13.7s-2 10-5.7 13.7L344 128H200l-2.3-2.3zM32 64c0-17.7 14.3-32 32-32H192c7.5 0 14.4 2.6 19.8 6.9L175 75.7c-9.6 9.6-15 22.7-15 36.3c0 5.5 .9 10.9 2.6 16H32V64zM48 384c0 26.5 21.5 48 48 48H288c26.5 0 48-21.5 48-48V208H152v56c0 13.3-10.7 24-24 24s-24-10.7-24-24V208H48V384zM0 192c0-17.7 14.3-32 32-32H352h48c61.9 0 112 50.1 112 112s-50.1 112-112 112H384c0 53-43 96-96 96H96c-53 0-96-43-96-96V192zM384 336h16c35.3 0 64-28.7 64-64s-28.7-64-64-64H384V336z"/></svg>
